X: 31159
T: Paddy Fahey's
R: reel
M: 4/4
K: Eminor
EF|:G3B A2 BA|GEED BcdB|EFGB A2BA|GEFD BEEF|
(3GAB GB A2BA|GEED BcdB EFGB A2BA|1 GEFD E2EF:|2 GEFD EFGA||
|:Bee2 Be^de|Befe dBAF|Ad d2 AdFd|Adfe ^dBAF|
Bee2 Be^de|Befe dBAB|e2 fe dB (3cde|1 dBAF EFGA:|2 dBAF E2EF||

